icons/chevron-double-topright.svg

<svg width="24" height="25" viewBox="0 0 24 25" fill="none" xmlns="http://www.w3.org/2000/svg">
<path fill-rule="evenodd" clip-rule="evenodd" d="M10.6389 14.0036C10.6389 14.0036 10.6383 14.0035 10.6371 14.0031L10.6389 14.0036ZM10.4987 14.0013L6.08683 14.0013C5.67261 14.0013 5.33683 13.6655 5.33683 13.2513C5.33683 12.8371 5.67261 12.5013 6.08683 12.5013L10.6123 12.5013C10.9868 12.5013 11.367 12.6271 11.6464 12.9066C11.9173 13.1774 12.05 13.5538 11.9987 13.9466L11.9987 18.4132C11.9987 18.8274 11.6629 19.1632 11.2487 19.1632C10.8345 19.1632 10.4987 18.8274 10.4987 18.4132L10.4987 14.0013Z" fill="black"/>
<path fill-rule="evenodd" clip-rule="evenodd" d="M14.8816 9.76094C14.8815 9.76097 14.8809 9.76084 14.8798 9.76047L14.8816 9.76094ZM14.7414 9.75862L10.3295 9.75862C9.91529 9.75862 9.5795 9.42284 9.5795 9.00862C9.5795 8.59441 9.91529 8.25862 10.3295 8.25862L14.855 8.25862C15.2295 8.25862 15.6097 8.38445 15.8891 8.6639C16.16 8.93476 16.2926 9.31109 16.2414 9.70393L16.2414 14.1705C16.2414 14.5847 15.9056 14.9205 15.4914 14.9205C15.0772 14.9205 14.7414 14.5847 14.7414 14.1705L14.7414 9.75862Z" fill="black"/>
</svg>

<svg xmlns="http://www.w3.org/2000/svg" fill="none" viewBox="0 0 24 25">
  <path fill="#000" fill-rule="evenodd" d="M10.639 14.004h-.002.002Zm-.14-.003H6.087a.75.75 0 0 1 0-1.5h4.525c.375 0 .755.126 1.034.406.271.27.404.647.353 1.04v4.466a.75.75 0 0 1-1.5 0v-4.412Zm4.383-4.241h-.002.002Zm-.14-.001h-4.413a.75.75 0 1 1 0-1.5h4.526c.374 0 .755.125 1.034.405.271.27.404.647.352 1.04v4.466a.75.75 0 0 1-1.5 0V9.76Z" clip-rule="evenodd"/>
</svg>
